X: 33773
T: Raven On The Rock, The
R: reel
M: 4/4
K: Adorian
|:Bdeg faaf|g2 fg edBA|Bdeg fdaf|1 gedG BAAd:|2 gedG BAAB||
ee/e/ ef gedB|dG G/G/G BcdB|c2 cB ABGA|Beed e2 Bd|
e2 fa gedB|dG G/G/G Bcdg|edcB ABGA|Beed B2 Ad|
|:Bgfg effd|Bggg agfa|gfed gABd|1 egdG BAAd:|2 e2 dG BAAg||
aAAB GABd|(3efg fd edeg|aAAB dGBd|egdG BAAg|
aAAB GABd|egfd edef|gfeg dGBd|e2 dG BAAd||

